svg/fluentui-system-icons/ic_fluent_accessibility_24_filled.svg

<svg width="24" height="24" viewBox="0 0 24 24" fill="none" xmlns="http://www.w3.org/2000/svg">
<path d="M12 6.5C13.2426 6.5 14.25 5.49264 14.25 4.25C14.25 3.00736 13.2426 2 12 2C10.7574 2 9.75 3.00736 9.75 4.25C9.75 5.49264 10.7574 6.5 12 6.5ZM6.14978 4.17803C5.00664 3.69279 3.68192 4.22239 3.18834 5.36195C2.69306 6.50545 3.2223 7.82927 4.36938 8.31617L7.39308 9.59966C7.76247 9.75645 8.00235 10.1189 8.00235 10.5202V13.5597L6.12337 19.0167C5.7188 20.1916 6.34332 21.4721 7.51826 21.8766C8.69319 22.2812 9.97364 21.6567 10.3782 20.4817L11.7636 16.4582C11.841 16.2334 12.159 16.2334 12.2364 16.4582L13.6219 20.4819C14.0264 21.6569 15.3069 22.2814 16.4818 21.8768C17.6568 21.4723 18.2813 20.1918 17.8767 19.0169L16.0023 13.56V10.5181C16.0023 10.1168 16.2422 9.75438 16.6116 9.59759L19.6304 8.31617C20.7775 7.82927 21.3068 6.50545 20.8115 5.36195C20.3179 4.22239 18.9932 3.69279 17.85 4.17803L16.244 4.85973C15.9033 5.00435 15.6657 5.28256 15.5492 5.59067C15.0072 7.02499 13.6215 8.04295 12 8.04295C10.3784 8.04295 8.99272 7.025 8.45067 5.5907C8.33423 5.2826 8.09658 5.00439 7.75589 4.85978L6.14978 4.17803Z" fill="#212121"/>
</svg>

<svg xmlns="http://www.w3.org/2000/svg" width="24" height="24"><path d="M12 6.5A2.25 2.25 0 1 0 12 2a2.25 2.25 0 0 0 0 4.5ZM6.15 4.178a2.266 2.266 0 0 0-2.962 1.184A2.24 2.24 0 0 0 4.37 8.316L7.393 9.6a1 1 0 0 1 .61.92v3.04l-1.88 5.457a2.25 2.25 0 1 0 4.255 1.465l1.386-4.024a.25.25 0 0 1 .472 0l1.386 4.024a2.25 2.25 0 1 0 4.255-1.465l-1.875-5.457v-3.042a1 1 0 0 1 .61-.92l3.018-1.282a2.24 2.24 0 0 0 1.181-2.954 2.266 2.266 0 0 0-2.961-1.184l-1.606.682c-.34.144-.578.423-.695.73a3.794 3.794 0 0 1-7.098 0 1.283 1.283 0 0 0-.695-.73L6.15 4.178Z"/></svg>
